svg/fluentui-system-icons/ic_fluent_archive_arrow_back_20_regular.svg

<svg width="20" height="20" viewBox="0 0 20 20" fill="none" xmlns="http://www.w3.org/2000/svg">
<path d="M8.5 10C8.22386 10 8 10.2239 8 10.5C8 10.7761 8.22386 11 8.5 11H10.2572C10.5705 10.6206 10.9338 10.2839 11.3369 10H8.5ZM6 16H9.20703C9.30564 16.3486 9.43777 16.6832 9.59971 17H6C4.34315 17 3 15.6569 3 14V7.83159C2.40876 7.55073 2 6.9481 2 6.25V4.75C2 3.7835 2.7835 3 3.75 3H16.25C17.2165 3 18 3.7835 18 4.75V6.25C18 6.9481 17.5912 7.55073 17 7.83159V9.59971C16.6832 9.43777 16.3486 9.30564 16 9.20703V8H4V14C4 15.1046 4.89543 16 6 16ZM3.75 4C3.33579 4 3 4.33579 3 4.75V6.25C3 6.66421 3.33579 7 3.75 7H16.25C16.6642 7 17 6.66421 17 6.25V4.75C17 4.33579 16.6642 4 16.25 4H3.75ZM14.5 19C16.9853 19 19 16.9853 19 14.5C19 12.0147 16.9853 10 14.5 10C12.0147 10 10 12.0147 10 14.5C10 16.9853 12.0147 19 14.5 19ZM13.6036 12.6036L12.7071 13.5H14.25C15.7688 13.5 17 14.7312 17 16.25V16.5C17 16.7761 16.7761 17 16.5 17C16.2239 17 16 16.7761 16 16.5V16.25C16 15.2835 15.2165 14.5 14.25 14.5H12.7071L13.6036 15.3964C13.7988 15.5917 13.7988 15.9083 13.6036 16.1036C13.4083 16.2988 13.0917 16.2988 12.8964 16.1036L11.1443 14.3514C11.0974 14.304 11.062 14.2495 11.0379 14.1914C11.0135 14.1324 11 14.0678 11 14C11 13.9322 11.0135 13.8676 11.0379 13.8086C11.0623 13.7496 11.0985 13.6944 11.1464 13.6464L12.8964 11.8964C13.0917 11.7012 13.4083 11.7012 13.6036 11.8964C13.7988 12.0917 13.7988 12.4083 13.6036 12.6036Z" fill="#212121"/>
</svg>

<svg xmlns="http://www.w3.org/2000/svg" width="20" height="20"><path d="M8.5 10a.5.5 0 0 0 0 1h1.757c.313-.38.677-.716 1.08-1H8.5ZM6 16h3.207c.099.349.23.683.393 1H6a3 3 0 0 1-3-3V7.832A1.75 1.75 0 0 1 2 6.25v-1.5C2 3.784 2.784 3 3.75 3h12.5c.966 0 1.75.784 1.75 1.75v1.5c0 .698-.409 1.3-1 1.582V9.6a5.465 5.465 0 0 0-1-.393V8H4v6a2 2 0 0 0 2 2ZM3.75 4a.75.75 0 0 0-.75.75v1.5c0 .414.336.75.75.75h12.5a.75.75 0 0 0 .75-.75v-1.5a.75.75 0 0 0-.75-.75H3.75ZM14.5 19a4.5 4.5 0 1 0 0-9 4.5 4.5 0 0 0 0 9Zm-.896-6.396-.897.896h1.543A2.75 2.75 0 0 1 17 16.25v.25a.5.5 0 0 1-1 0v-.25a1.75 1.75 0 0 0-1.75-1.75h-1.543l.897.896a.5.5 0 0 1-.708.708l-1.752-1.753a.499.499 0 0 1 .002-.705l1.75-1.75a.5.5 0 0 1 .708.708Z"/></svg>
